images_elementary_svg/cmd/lc_groupbox.svg

<svg viewBox="0 0 24 24" xmlns="http://www.w3.org/2000/svg" xmlns:xlink="http://www.w3.org/1999/xlink"><linearGradient id="a" gradientTransform="matrix(1.02672 0 0 .97154 -.327 1.27)" gradientUnits="userSpaceOnUse" x1="13" x2="13" y1="4" y2="21"><stop offset="0" stop-color="#fff"/><stop offset=".063" stop-color="#fff" stop-opacity=".235"/><stop offset=".951" stop-color="#fff" stop-opacity=".157"/><stop offset="1" stop-color="#fff" stop-opacity=".392"/></linearGradient><linearGradient id="b" gradientTransform="matrix(1.30906 0 0 1.19468 -3.715 -1.406)" gradientUnits="userSpaceOnUse" x1="15.922" x2="17.49" y1="7.121" y2="23.385"><stop offset="0" stop-color="#f9f9f9"/><stop offset="1" stop-color="#dbdbdb"/></linearGradient><linearGradient id="c" gradientUnits="userSpaceOnUse" x1="8.3946" x2="5.3426" y1="4.4498" y2=".7874"><stop offset="0" stop-color="#1f1f1f"/><stop offset="1" stop-color="#5c5c5c"/></linearGradient><rect fill="url(#b)" height="19.115" rx="3.222" ry="2.941" width="20.945" x="1.521" y="3.372"/><rect fill="none" height="17.409" rx="2.843" ry="2.595" stroke="url(#a)" stroke-opacity=".502" stroke-width=".999" width="19.212" x="2.336" y="4.274"/><path d="m11.916 8.547h-1.953l-1.876-3.05-1.876 3.05h-1.831l2.675-4.16-2.505-3.907h1.89l1.737 2.903 1.703-2.903h1.843l-2.533 4zm3.536-4.745 1.683-3.32h1.842l-2.675 4.926v3.14h-1.7v-3.086l-2.675-4.982h1.853z" style="opacity:.66;stroke:#000;stroke-width:.61;stroke-linecap:round;stroke-linejoin:round;fill:url(#c)" transform="scale(.98295 1.01735)"/><path d="m20.208 3.01v1.43h.513v-.034c.7.44 1.232 1.074 1.232 1.907v13.234c0 1.36-1.188 2.455-2.707 2.455h-14.503c-1.52 0-2.708-1.096-2.708-2.455v-13.234c0-.286.106-.54.205-.793l.52-.033-.007-2.085-.31.224c-.862.62-1.434 1.59-1.434 2.687v13.234c0 1.9 1.682 3.426 3.733 3.426h14.502c2.05 0 3.734-1.527 3.734-3.426v-13.234c0-1.54-1.115-2.83-2.624-3.26z" opacity=".3"/></svg>

<svg xmlns="http://www.w3.org/2000/svg" xmlns:xlink="http://www.w3.org/1999/xlink" viewBox="0 0 24 24"><defs><linearGradient id="a"><stop offset="0" stop-color="#fff"/><stop offset=".063" stop-color="#fff" stop-opacity=".235"/><stop offset=".951" stop-color="#fff" stop-opacity=".157"/><stop offset="1" stop-color="#fff" stop-opacity=".392"/></linearGradient><linearGradient xlink:href="#a" id="c" x1="13" y1="4" x2="13" y2="21" gradientUnits="userSpaceOnUse" gradientTransform="matrix(1.02672 0 0 .97154 -.327 1.27)"/></defs><linearGradient id="b" gradientTransform="matrix(1.30906 0 0 1.19468 -3.715 -1.406)" gradientUnits="userSpaceOnUse" x1="15.922" x2="17.49" y1="7.121" y2="23.385"><stop offset="0" stop-color="#f9f9f9"/><stop offset="1" stop-color="#dbdbdb"/></linearGradient><linearGradient id="d" gradientTransform="matrix(.6104 0 0 .6104 27.317 -2.875)" gradientUnits="userSpaceOnUse" x1="-31" x2="-36" y1="12" y2="6"><stop offset="0" stop-color="#1f1f1f"/><stop offset="1" stop-color="#5c5c5c"/></linearGradient><rect height="19.115" rx="3.222" ry="2.941" width="20.945" x="1.521" y="3.372" fill="url(#b)"/><rect height="17.409" rx="2.843" ry="2.595" width="19.212" x="2.336" y="4.274" fill="none" stroke="url(#c)" stroke-width=".999" stroke-opacity=".502"/><g transform="scale(.98295 1.01735)" opacity=".66" stroke="#000" stroke-width=".61" stroke-linecap="round" stroke-linejoin="round" fill="url(#d)"><path d="M11.916 8.547H9.963l-1.876-3.05-1.876 3.05H4.38l2.675-4.16L4.55.48H6.44l1.737 2.903L9.88.48h1.843l-2.533 4zM15.452 3.802l1.683-3.32h1.842l-2.675 4.926v3.14h-1.7V5.462L11.927.48h1.853z"/></g><path d="M20.208 3.01v1.43h.513v-.034c.7.44 1.232 1.074 1.232 1.907v13.234c0 1.36-1.188 2.455-2.707 2.455H4.743c-1.52 0-2.708-1.096-2.708-2.455V6.313c0-.286.106-.54.205-.793l.52-.033-.007-2.085-.31.224c-.862.62-1.434 1.59-1.434 2.687v13.234c0 1.9 1.682 3.426 3.733 3.426h14.502c2.05 0 3.734-1.527 3.734-3.426V6.313c0-1.54-1.115-2.83-2.624-3.26z" opacity=".3"/></svg>
